X:293
T:Cumberland Reel, The 
C:Joe Buchanan's Scottish Tome - Page 437.2
I:437 2
R:Jig
Z:Carl Allison
L:1/8
M:6/8
K:D
A | "D"f2 e "D"d2 c | "G"d2 B "D"A2 F | "A7"GFG EFG | "D"F2 G A2 A |
"G"B2 G d2 B | "D"A2 F d2 d | "A7"cde ABc | "D"d3 d2 :|
e | "D"f2 f f2 A | "D"f2 f f2 A | "D"f2 f g2 f | "A"e2 e (e2 c) |
"G"d2 d d2 c | "G"d2 d d2 c | d2 B e2 d | "A"c2 A ABc |
"D"d2 d "A7"cBA | "G"B2 c "D"d2 A | "D"ded "A7"cBA | "G"B2 c "D"d2 f |
"A"e2 e e2 e | "A"e2 e efg | "A7"a2 A ABc | "D"d3 d2 |]

